public/svg/icon/oax.svg

<svg xmlns="http://www.w3.org/2000/svg" xmlns:xlink="http://www.w3.org/1999/xlink" width="32" height="32" viewBox="0 0 32 32"><defs><linearGradient id="oax-c" x1="50%" x2="50%" y1="0%" y2="100%"><stop offset="0%" stop-color="#FFF" stop-opacity=".5"/><stop offset="100%" stop-opacity=".5"/></linearGradient><circle id="oax-b" cx="16" cy="15" r="15"/><filter id="oax-a" width="111.7%" height="111.7%" x="-5.8%" y="-4.2%" filterUnits="objectBoundingBox"><feOffset dy=".5" in="SourceAlpha" result="shadowOffsetOuter1"/><feGaussianBlur in="shadowOffsetOuter1" result="shadowBlurOuter1" stdDeviation=".5"/><feComposite in="shadowBlurOuter1" in2="SourceAlpha" operator="out" result="shadowBlurOuter1"/><feColorMatrix in="shadowBlurOuter1" values="0 0 0 0 0 0 0 0 0 0 0 0 0 0 0 0 0 0 0.199473505 0"/></filter><path id="oax-e" d="M14.0901831,17.6676616 L13.4670684,18.9988793 L12.0848723,18.9988793 L15.83778,11 L18.3409433,16.3325295 L16.9259938,16.3325295 L15.8051863,14.0179602 L14.6843788,16.3715028 L14.0901831,17.6676616 Z M19.5443229,18.9689453 L22.4749414,15.0179903 L19.5226243,11.0377819 L21.1376096,11.0377819 L23.279047,13.9480125 L22.5002034,15.0179903 L23.279047,16.087968 L21.138089,18.9981986 L19.558093,18.9981986 L19.5584135,18.9988793 L18.1762174,18.9988793 L17.5495877,17.6676616 L18.9317838,17.6676616 L19.5443229,18.9689453 Z M24.0704026,15.0008012 L23.279047,13.9136343 L25.420005,11.0034038 L27,11.0034038 L24.0704026,15.0008012 Z M24.0704026,15.0008012 L27,18.9988793 L25.4208038,18.9988793 L23.2798458,16.0886488 L24.0704026,15.0008012 Z M11.4222938,12.1594971 C12.1396671,12.9046591 12.5328859,13.9346775 12.5073121,15.0016521 C12.516212,16.0653122 12.1255535,17.0886239 11.4222938,17.8438071 C10.6990015,18.6525449 9.80730842,18.9995601 8.75408491,18.9995601 C7.75437717,19.0154865 6.79143769,18.5983827 6.08587606,17.8438071 C5.37173263,17.0963358 4.97911021,16.0678797 5.00085772,15.0016521 C4.98692109,14.1702972 5.22976269,13.3570859 5.69203565,12.6870828 L6.61232805,13.667371 C6.37477229,14.0792077 6.24952269,14.5533492 6.25060201,15.036711 C6.25151814,15.7446791 6.51089983,16.4245132 6.97389431,16.9324454 C7.43893648,17.4490569 8.08176055,17.7411412 8.75368548,17.7411412 C9.4256104,17.7411412 10.0684345,17.4490569 10.5334766,16.9324454 C11.0111406,16.4348587 11.2731386,15.7481672 11.2567689,15.036711 C11.2558528,14.328743 10.9964711,13.6489088 10.5334766,13.1409766 C10.0663433,12.6321728 9.42167882,12.3530945 8.75376536,12.3705314 C8.3142448,12.3577467 7.88050686,12.4795407 7.50402107,12.7214609 L6.58372868,11.7411728 C7.21272615,11.2487632 7.97616714,10.9900903 8.75664128,11.0049355 C9.75674571,10.9811739 10.7215451,11.399053 11.4222938,12.1594971 Z"/><filter id="oax-d" width="115.9%" height="143.8%" x="-8%" y="-15.6%" filterUnits="objectBoundingBox"><feOffset dy=".5" in="SourceAlpha" result="shadowOffsetOuter1"/><feGaussianBlur in="shadowOffsetOuter1" result="shadowBlurOuter1" stdDeviation=".5"/><feColorMatrix in="shadowBlurOuter1" values="0 0 0 0 0 0 0 0 0 0 0 0 0 0 0 0 0 0 0.204257246 0"/></filter></defs><g fill="none" fill-rule="evenodd"><g fill-rule="nonzero"><use fill="#000" filter="url(#oax-a)" xlink:href="#oax-b"/><use fill="#164B79" fill-rule="evenodd" xlink:href="#oax-b"/><use fill="url(#oax-c)" fill-rule="evenodd" style="mix-blend-mode:soft-light" xlink:href="#oax-b"/><circle cx="16" cy="15" r="14.5" stroke="#000" stroke-opacity=".097"/></g><g fill-rule="nonzero"><use fill="#000" filter="url(#oax-d)" xlink:href="#oax-e"/><use fill="#FFF" fill-rule="evenodd" xlink:href="#oax-e"/></g></g></svg>

<svg xmlns="http://www.w3.org/2000/svg" xmlns:xlink="http://www.w3.org/1999/xlink" width="32" height="32" viewBox="0 0 32 32"><defs><filter id="a" width="111.7%" height="111.7%" x="-5.8%" y="-4.2%" filterUnits="objectBoundingBox"><feOffset dy=".5" in="SourceAlpha" result="shadowOffsetOuter1"/><feGaussianBlur in="shadowOffsetOuter1" result="shadowBlurOuter1" stdDeviation=".5"/><feComposite in="shadowBlurOuter1" in2="SourceAlpha" operator="out" result="shadowBlurOuter1"/><feColorMatrix in="shadowBlurOuter1" values="0 0 0 0 0 0 0 0 0 0 0 0 0 0 0 0 0 0 0.199473505 0"/></filter><filter id="d" width="115.9%" height="143.8%" x="-8%" y="-15.6%" filterUnits="objectBoundingBox"><feOffset dy=".5" in="SourceAlpha" result="shadowOffsetOuter1"/><feGaussianBlur in="shadowOffsetOuter1" result="shadowBlurOuter1" stdDeviation=".5"/><feColorMatrix in="shadowBlurOuter1" values="0 0 0 0 0 0 0 0 0 0 0 0 0 0 0 0 0 0 0.204257246 0"/></filter><linearGradient id="c" x1="50%" x2="50%" y1="0%" y2="100%"><stop offset="0%" stop-color="#FFF" stop-opacity=".5"/><stop offset="100%" stop-opacity=".5"/></linearGradient><circle id="b" cx="16" cy="15" r="15"/><path id="e" d="M14.09 17.668l-.623 1.33h-1.382L15.838 11l2.503 5.333h-1.415l-1.12-2.315-1.122 2.354-.594 1.296zm5.454 1.3l2.93-3.95-2.951-3.98h1.615l2.141 2.91-.779 1.07.779 1.07-2.14 2.91h-2.963l-.626-1.33h1.382l.612 1.3zm4.526-3.967l-.791-1.087 2.141-2.91H27L24.07 15zm0 0L27 18.999h-1.58l-2.14-2.91.79-1.088zm-12.648-2.842a3.965 3.965 0 011.085 2.843 4.124 4.124 0 01-1.085 2.842C10.7 18.653 9.807 19 8.754 19a3.575 3.575 0 01-2.668-1.156A4 4 0 015 15.002a3.965 3.965 0 01.691-2.315l.92.98a2.822 2.822 0 00.362 3.265 2.396 2.396 0 001.78.81c.672 0 1.314-.293 1.78-.81a2.65 2.65 0 00.723-1.895 2.82 2.82 0 00-.724-1.896 2.333 2.333 0 00-1.78-.77 2.19 2.19 0 00-1.249.35l-.92-.98a3.416 3.416 0 012.173-.736 3.51 3.51 0 012.665 1.154z"/></defs><g fill="none"><use fill="#000" filter="url(#a)" xlink:href="#b"/><use fill="#164B79" fill-rule="evenodd" xlink:href="#b"/><use fill="url(#c)" fill-rule="evenodd" style="mix-blend-mode:soft-light" xlink:href="#b"/><circle cx="16" cy="15" r="14.5" stroke="#000" stroke-opacity=".097"/><use fill="#000" filter="url(#d)" xlink:href="#e"/><use fill="#FFF" fill-rule="evenodd" xlink:href="#e"/></g></svg>
